assets/lmstudio/mono.svg

<svg viewBox="0 0 24 24" xmlns="http://www.w3.org/2000/svg"><path d="m5.6 0a5.6 5.6 0 0 0 -5.6 5.6v12.8a5.6 5.6 0 0 0 5.6 5.6h12.8a5.6 5.6 0 0 0 5.6-5.6v-12.8a5.6 5.6 0 0 0 -5.6-5.6zm0 2h12.8a3.6 3.6 0 0 1 3.6 3.6v12.8a3.6 3.6 0 0 1 -3.6 3.6h-12.8a3.6 3.6 0 0 1 -3.6-3.6v-12.8a3.6 3.6 0 0 1 3.6-3.6m-.4 2.8a1.2 1.2 0 0 0 0 2.4h10.4a1.2 1.2 0 0 0 0-2.4zm3.2 4a1.2 1.2 0 0 0 0 2.4h10.4a1.2 1.2 0 0 0 0-2.4zm-3.2 4a1.2 1.2 0 0 0 0 2.4h10.4a1.2 1.2 0 0 0 0-2.4zm3.2 4a1.2 1.2 0 0 0 0 2.4h10.4a1.2 1.2 0 0 0 0-2.4z"/></svg>

<svg xmlns="http://www.w3.org/2000/svg" viewBox="0 0 24 24"><path d="M5.6 0A5.6 5.6 0 0 0 0 5.6v12.8A5.6 5.6 0 0 0 5.6 24h12.8a5.6 5.6 0 0 0 5.6-5.6V5.6A5.6 5.6 0 0 0 18.4 0zm0 2h12.8A3.6 3.6 0 0 1 22 5.6v12.8a3.6 3.6 0 0 1-3.6 3.6H5.6A3.6 3.6 0 0 1 2 18.4V5.6A3.6 3.6 0 0 1 5.6 2m-.4 2.8a1.2 1.2 0 0 0 0 2.4h10.4a1.2 1.2 0 0 0 0-2.4zm3.2 4a1.2 1.2 0 0 0 0 2.4h10.4a1.2 1.2 0 0 0 0-2.4zm-3.2 4a1.2 1.2 0 0 0 0 2.4h10.4a1.2 1.2 0 0 0 0-2.4zm3.2 4a1.2 1.2 0 0 0 0 2.4h10.4a1.2 1.2 0 0 0 0-2.4z"/></svg>
